X: 1
T: Bear Dance
T: Danse de L'Ours
C: Trad
M: 2/4
L: 1/8
R: Polka
r: 32
K: Emin
Z: ABC transcription by Verge Roller
"Em" BE E2 | BE E>F | "G"GG FG |"D" A3 G/A/ | "Em" BB "D"AA |"G" GG "D" F2 | "Em"E/2F/2G "D" FD | "Em" E2 E2 :|
|:"Em" E/2F/2G E/2F/2G | "D" FD D2 | "Em" E/2F/2G E/2F/2G | "D" A3 G/A/ | "Em" BB "D"AA | "G" GG "D" F2 | "Em" E/2F/2G "D" FD | "Em" E2 E2 :|
